src/libvalent/ui/data/icons/hicolor/scalable/devices/phonelink-ring-symbolic.svg

<?xml version="1.0" encoding="UTF-8"?>
<svg xmlns="http://www.w3.org/2000/svg" height="16px" viewBox="0 0 16 16" width="16px"><path d="m 11.800781 0 c 1.203125 0 2.199219 1 2.199219 2.199219 h -2 c 0 -0.128907 -0.074219 -0.199219 -0.199219 -0.199219 h -7.605469 c -0.125 0 -0.195312 0.070312 -0.195312 0.199219 v 9.613281 c 0 0.128906 0.070312 0.199219 0.195312 0.199219 l 7.804688 -0.011719 v 2 l 1.984375 0.0625 c -0.132813 1.082031 -1.070313 1.9375 -2.183594 1.9375 h -7.605469 c -1.203124 0 -2.195312 -1 -2.195312 -2.199219 v -11.601562 c 0 -1.199219 0.992188 -2.199219 2.195312 -2.199219 z m -3.800781 12.902344 c -0.550781 0 -1 0.382812 -1 0.933594 c 0 0.550781 0.449219 1 1 1 s 1 -0.449219 1 -1 c 0 -0.550782 -0.449219 -0.933594 -1 -0.933594 z m 0 0"/><path d="m 16 8.0625 c 0 -2.167969 -0.738281 -4.019531 -2 -5 h -1 v 2 c 0.605469 0.789062 1 1.757812 1 3 s -0.394531 2.21875 -1 3 v 2 h 1 c 1.222656 -0.996094 2 -2.875 2 -5 z m 0 0"/><path d="m 13 8.0625 c 0 -1.257812 -0.3125 -2.214844 -1 -3 h -1 v 6 h 1 c 0.671875 -0.835938 1 -1.742188 1 -3 z m 0 0"/></svg>

<svg xmlns="http://www.w3.org/2000/svg" width="16" height="16">
    <g fill="#2e3436">
        <path d="M11.803 0A2.217 2.217 0 0 1 14 2.201h-2c0-.13-.074-.201-.197-.201H11v.25c0 .416-.335.75-.75.75h-4.5A.748.748 0 0 1 5 2.25V2h-.805C4.071 2 4 2.07 4 2.201v9.61c0 .13.071.2.195.2L12 12v2l1.983.064C13.85 15.143 12.914 16 11.803 16H4.195A2.215 2.215 0 0 1 2 13.799V2.2C2 1.001 2.994 0 4.195 0zM8 12.902c-.552 0-1 .382-1 .934a1 1 0 0 0 2 0c0-.552-.448-.934-1-.934z" style="line-height:normal;font-variant-ligatures:normal;font-variant-position:normal;font-variant-caps:normal;font-variant-numeric:normal;font-variant-alternates:normal;font-feature-settings:normal;text-indent:0;text-align:start;text-decoration-line:none;text-decoration-style:solid;text-decoration-color:#000;text-transform:none;text-orientation:mixed;white-space:normal;shape-padding:0;isolation:auto;mix-blend-mode:normal;solid-color:#000;solid-opacity:1;marker:none" color="#bebebe" font-weight="400" font-family="sans-serif" overflow="visible"/>
        <path d="M16 8.063c0-2.167-.739-4.02-2-5h-1v2c.606.788 1 1.758 1 3 0 1.24-.394 2.219-1 3v2h1c1.223-.995 2-2.874 2-5z" style="marker:none" color="#000" overflow="visible"/>
        <path d="M13 8.063c0-1.258-.312-2.216-1-3h-1v6h1c.672-.837 1-1.743 1-3z" style="line-height:normal;-inkscape-font-specification:Sans;text-indent:0;text-align:start;text-decoration-line:none;text-transform:none;marker:none" color="#000" font-weight="400" font-family="Sans" overflow="visible"/>
    </g>
</svg>
